X: 16040
T: Green Cottage, The
R: polka
M: 2/4
K: Edorian
B>A|:GE ED|B,E E>F|G>F ED|GA B/d/B/A/|
GE ED|B,E E>A|B>A GF|1 E2 B>A:|2 E3 A||
|:Be ef|ed BA|Be df|e3 f|
g2 f2|ed B>A|BE E/F/G/A/|1 B3 A:|2 B4||

